X:5
T:Constant Billy
M:6/8
L:1/8
R:polka
K:D
"A"
D2 A FEF | G2 E ECA, | F2 D B,2 D | A,B,C D2 A, | 
D2 A FEF | G2 E ECA, | F2 D B,2 D | A,B,C D3 ||
"B"
G2 A BGE | F2 G AFD | G2 A BGE | EF^G A2 (3A,/B,/C/ | 
D2 A FEF | G2 E ECA, | F2 D B,CD | A,B,C D3 | 


